resources/haticons/SVG/drive_file_move_outline.svg

<!-- Generated by IcoMoon.io -->
<svg version="1.1" xmlns="http://www.w3.org/2000/svg" width="24" height="24" viewBox="0 0 24 24">
<title>drive_file_move_outline</title>
<path d="M12 9l3.984 4.031-3.984 3.984-1.453-1.406 1.594-1.594h-4.125v-2.016h4.125l-1.547-1.594zM20.016 18v-9.984h-16.031v9.984h16.031zM20.016 6q0.797 0 1.383 0.609t0.586 1.406v9.984q0 0.797-0.586 1.406t-1.383 0.609h-16.031q-0.797 0-1.383-0.609t-0.586-1.406v-12q0-0.797 0.586-1.406t1.383-0.609h6l2.016 2.016h8.016z"></path>
</svg>

<svg xmlns="http://www.w3.org/2000/svg" width="24" height="24"><path d="M12 9l3.984 4.031L12 17.015l-1.453-1.406 1.594-1.594H8.016v-2.016h4.125l-1.547-1.594zm8.016 9V8.016H3.985V18h16.031zm0-12q.797 0 1.383.609t.586 1.406v9.984q0 .797-.586 1.406t-1.383.609H3.985q-.797 0-1.383-.609t-.586-1.406v-12q0-.797.586-1.406t1.383-.609h6L12.001 6h8.016z"/></svg>
